img/svg/profile-icons/user-key-ico.svg

<svg width="22" height="22" viewBox="0 0 22 22" fill="none" xmlns="http://www.w3.org/2000/svg">
<path d="M5.65062 20.2812H2.60813C2.24127 20.2812 2.01994 20.0765 1.92068 19.9544C1.74932 19.7436 1.68293 19.4693 1.73866 19.2017C2.63108 14.9151 6.41405 11.7846 10.7812 11.683C10.854 11.6857 10.9269 11.6875 11.0002 11.6875C11.0742 11.6875 11.1478 11.6857 11.2212 11.6829C12.2891 11.7073 13.3322 11.9081 14.3251 12.2809C14.7694 12.4478 15.2648 12.2228 15.4317 11.7785C15.5985 11.3342 15.3736 10.8387 14.9293 10.6718C14.787 10.6184 14.6437 10.5684 14.4998 10.5209C15.9221 9.45403 16.844 7.75453 16.844 5.84375C16.844 2.62152 14.2225 0 11.0002 0C7.77796 0 5.15648 2.62152 5.15648 5.84375C5.15648 7.75625 6.07997 9.45708 7.50442 10.5238C6.19942 10.9534 4.97481 11.6215 3.90308 12.503C1.93804 14.1194 0.57176 16.3739 0.0560063 18.8514C-0.105642 19.6277 0.0879751 20.425 0.587229 21.0388C1.08395 21.6497 1.82056 22 2.60813 22H5.65062C6.12526 22 6.51 21.6153 6.51 21.1406C6.51 20.666 6.12526 20.2812 5.65062 20.2812ZM6.87523 5.84375C6.87523 3.5692 8.72568 1.71875 11.0002 1.71875C13.2748 1.71875 15.1252 3.5692 15.1252 5.84375C15.1252 8.05093 13.3827 9.85866 11.2011 9.96381C11.1342 9.9626 11.0673 9.96157 11.0002 9.96157C10.933 9.96157 10.8659 9.96256 10.7988 9.96377C8.61744 9.85832 6.87523 8.05071 6.87523 5.84375Z" fill="#4C51CC"/>
<path d="M21.3421 14.8073C20.9742 13.9845 20.1456 13.4513 19.2291 13.4492H16.5433C15.5765 13.4492 14.733 14.019 14.3936 14.9019C14.3485 15.0193 14.2933 15.1673 14.2356 15.3398H8.60904C8.37671 15.3398 8.1543 15.4339 7.99244 15.6006L6.51621 17.1212C6.19106 17.4561 6.19269 17.9893 6.51986 18.3221L8.02376 19.8523C8.18533 20.0167 8.40619 20.1093 8.63667 20.1093H11.4296C11.9043 20.1093 12.289 19.7246 12.289 19.25C12.289 18.7753 11.9043 18.3906 11.4296 18.3906H8.99701L8.33409 17.7161L8.97247 17.0586H14.8803C15.2762 17.0586 15.6209 16.7881 15.715 16.4036C15.7845 16.1197 15.8718 15.8467 15.9979 15.5186C16.0811 15.3022 16.29 15.168 16.5454 15.168H19.2271C19.4701 15.1685 19.6793 15.2992 19.773 15.5088C20.0037 16.0249 20.2791 16.824 20.2812 17.6996C20.2833 18.5817 20.0081 19.3991 19.7768 19.9294C19.6836 20.1433 19.4726 20.2812 19.2371 20.2812H16.5233C16.2855 20.2807 16.0628 20.1277 15.9692 19.9006C15.8687 19.657 15.7816 19.3787 15.7029 19.05C15.5924 18.5884 15.1285 18.3038 14.6671 18.4142C14.2055 18.5247 13.9209 18.9884 14.0314 19.45C14.1311 19.8668 14.2453 20.2285 14.3803 20.5559C14.7412 21.431 15.5808 21.9978 16.5213 22H19.2391C20.1566 21.9999 20.9857 21.4573 21.3523 20.6163C21.6493 19.9352 22.0027 18.8756 22 17.6955C21.9972 16.5186 21.6407 15.4753 21.3421 14.8073Z" fill="#4C51CC"/>
<path d="M18.5195 18.5625C18.9941 18.5625 19.3789 18.1777 19.3789 17.7031C19.3789 17.2285 18.9941 16.8438 18.5195 16.8438C18.0449 16.8438 17.6601 17.2285 17.6601 17.7031C17.6601 18.1777 18.0449 18.5625 18.5195 18.5625Z" fill="#4C51CC"/>
</svg>

<svg width="22" height="22" fill="none" xmlns="http://www.w3.org/2000/svg"><path d="M5.65 20.281H2.609a.873.873 0 01-.687-.327.898.898 0 01-.182-.752c.892-4.287 4.675-7.417 9.042-7.519a5.903 5.903 0 00.44 0 9.415 9.415 0 013.104.598.86.86 0 10.604-1.61 11.332 11.332 0 00-.43-.15 5.839 5.839 0 002.345-4.677A5.85 5.85 0 0011 0a5.85 5.85 0 00-5.844 5.844c0 1.912.924 3.613 2.348 4.68a11.168 11.168 0 00-3.6 1.979 11.212 11.212 0 00-3.848 6.348A2.61 2.61 0 002.608 22h3.043a.86.86 0 100-1.719zM6.876 5.844A4.13 4.13 0 0111 1.719a4.13 4.13 0 014.125 4.125 4.13 4.13 0 01-3.924 4.12 11.1 11.1 0 00-.402 0 4.13 4.13 0 01-3.924-4.12z" fill="#4C51CC"/><path d="M21.342 14.807a2.316 2.316 0 00-2.113-1.358h-2.686c-.966 0-1.81.57-2.15 1.453-.045.117-.1.265-.157.438H8.609a.86.86 0 00-.617.26l-1.476 1.521a.86.86 0 00.004 1.201l1.504 1.53a.86.86 0 00.613.257h2.793a.86.86 0 100-1.718H8.997l-.663-.675.638-.657h5.908a.86.86 0 00.835-.655c.07-.284.157-.557.283-.885.083-.217.292-.351.547-.351h2.682c.243 0 .452.131.546.34.23.517.506 1.316.508 2.192.002.882-.273 1.7-.504 2.23a.587.587 0 01-.54.351h-2.714a.611.611 0 01-.554-.38 5.714 5.714 0 01-.266-.851.86.86 0 00-1.672.4c.1.417.214.779.35 1.106.36.875 1.2 1.442 2.14 1.444h2.718c.918 0 1.747-.543 2.113-1.384.297-.68.65-1.74.648-2.92-.003-1.177-.36-2.22-.658-2.889z" fill="#4C51CC"/><path d="M18.52 18.563a.86.86 0 100-1.72.86.86 0 000 1.72z" fill="#4C51CC"/></svg>
